X: 3
T: The Girl I Left Behind Me
R: polka
M: 2/4
L: 1/8
K: Gmaj
|: g/f/ |ec BA | BG EF | G>A G/A/B/c/ | d>B gf/g/ |
ec BA | BE E/F/G/A/ | B/A/G/F/ EF | G2 G :|
|: e |ef gf/e/ | fB Bd|ef g/f/e/d/ | e>f gf/g/ |
ec BA | BE E/F/G/>A/ | B/A/G/F/ EF | G2 G ||
|: B/c/ |dB gf/g/ | dB ba/g/ | f/e/d/c/ B/A/G/F/ | E/G/F/A/ G :|


Tune 5418	Setting 17576

